X: 152
T: Kitty of Coleraine
N:"Gaily"
B:O'Neill's 152
Z:Transcribed by henrik.norbeck@mailbox.swipnet.se
M:6/8
L:1/8
K:D
(A/G/)|(FAd) (dfa)|e(g/f/)(e/d/) (ce).A|(df).a (dg).b|(b/a/)(g/f/)(e/d/) fe (A/G/)|
(FAd) (dfa)|e(g/f/)(e/d/) (ce).A|(df)a (dg)b|(A>Bc) d2||
(f/g/)|afd ecA|(af).d (ec).A|(af).d (f/e/)(d/c/)(B/A/)|Ba^g Ha2 (A/G/)|
(FAd) (dfa)|e(g/f/)(e/d/) (ce).A|(df)a (dg)b|(A>Bc) d2||


